Hatter-kde/actions/24/view-sort-descending-name.svg

<svg xmlns="http://www.w3.org/2000/svg" viewBox="0 0 24 24">
  <defs id="defs3051">
    <style type="text/css" id="current-color-scheme">
      .ColorScheme-Text {
        color:#363636;
      }
      </style>
  </defs>
 <path style="fill:currentColor;fill-opacity:1;stroke:none" 
     d="M 6.1113281 4 L 6.1113281 4.8144531 L 8.1835938 4.8144531 L 6 8.0683594 L 6 8.8007812 L 9.828125 8.8007812 L 9.828125 7.9492188 L 7.5820312 7.9492188 L 9.7558594 4.65625 L 9.7558594 4 L 6.1113281 4 z M 14 9.9921875 L 14 18.285156 L 11.707031 15.992188 L 11 16.699219 L 14.292969 19.992188 L 14.5 20.199219 L 14.707031 19.992188 L 18 16.699219 L 17.292969 15.992188 L 15 18.285156 L 15 9.9921875 L 14 9.9921875 z M 8.0957031 10 C 7.3124631 10.0182 6.7105975 10.155109 6.2734375 10.355469 L 6.5195312 11.255859 C 6.7290012 11.182959 7.5218511 10.929687 7.9863281 10.929688 L 8.0488281 10.929688 C 8.6954581 10.956988 8.7421875 11.192497 8.7421875 11.748047 L 8.7421875 11.966797 L 8.4042969 12.021484 C 6.8378069 12.249171 6 12.440388 6 13.642578 C 6 14.480468 6.6107106 15 7.4941406 15 C 8.1043406 15 8.5042305 14.744516 8.9140625 14.398438 L 9.0410156 14.908203 L 10.007812 14.908203 L 10.007812 11.539062 C 10.007812 10.509923 9.296026 10 8.203125 10 L 8.0957031 10 z M 8.7421875 12.677734 L 8.7421875 13.796875 C 8.4052175 14.024565 8.1500506 14.189453 7.7128906 14.189453 C 7.3212706 14.189453 7.1289062 13.943736 7.1289062 13.597656 C 7.1289062 12.941916 7.7030169 12.832602 8.4042969 12.732422 L 8.7421875 12.677734 z "
     class="ColorScheme-Text"
     />
</svg>

<?xml version="1.0" encoding="UTF-8"?>
<svg viewBox="0 0 24 24" xmlns="http://www.w3.org/2000/svg">
 <defs id="defs3051">
  <style id="current-color-scheme" type="text/css">.ColorScheme-Text {
        color:#363636;
      }</style>
 </defs>
 <path class="ColorScheme-Text" d="m6.1113 4v0.81445h2.0723l-2.1836 3.2539v0.73242h3.8281v-0.85156h-2.2461l2.1738-3.293v-0.65625h-3.6445zm7.8887 5.9922v8.293l-2.293-2.293-0.70703 0.70703 3.5 3.5 3.5-3.5-0.70703-0.70703-2.293 2.293v-8.293h-1zm-5.9043 0.0078125c-0.78324 0.0182-1.3851 0.15511-1.8223 0.35547l0.24609 0.90039c0.20947-0.0729 1.0023-0.32617 1.4668-0.32617h0.0625c0.64663 0.0273 0.69336 0.26281 0.69336 0.81836v0.21875l-0.33789 0.054687c-1.5665 0.22769-2.4043 0.4189-2.4043 1.6211 0 0.83789 0.61071 1.3574 1.4941 1.3574 0.6102 0 1.0101-0.25548 1.4199-0.60156l0.12695 0.50976h0.9668v-3.3691c0-1.0291-0.71179-1.5391-1.8047-1.5391h-0.10742zm0.64648 2.6777v1.1191c-0.33697 0.22769-0.59214 0.39258-1.0293 0.39258-0.39162 0-0.58398-0.24572-0.58398-0.5918 0-0.65574 0.57411-0.76505 1.2754-0.86523l0.33789-0.054688z" fill="currentColor"/>
</svg>
